Newaita/actions/16/format-font-size-more.svg

<?xml version="1.0" encoding="UTF-8"?>
<svg xmlns="http://www.w3.org/2000/svg" xmlns:xlink="http://www.w3.org/1999/xlink" width="16pt" height="16pt" viewBox="0 0 16 16" version="1.1">
<g id="surface1">
<path style=" stroke:none;fill-rule:evenodd;fill:rgb(47.058824%,56.470591%,61.176473%);fill-opacity:1;" d="M 8.601562 8.0625 L 13.890625 4.753906 L 15.214844 6.078125 L 15.214844 0.785156 L 9.921875 0.785156 L 11.246094 2.109375 L 7.9375 7.402344 Z M 8.601562 8.0625 "/>
<path style=" stroke:none;fill-rule:nonzero;fill:rgb(47.058824%,56.470591%,61.176473%);fill-opacity:1;" d="M 3.804688 8.726562 C 2.953125 8.726562 2.195312 9.121094 1.683594 9.746094 C 1.15625 10.542969 2.148438 11.207031 2.625 10.6875 C 2.898438 10.296875 3.324219 10.046875 3.804688 10.046875 C 4.628906 10.046875 5.292969 10.785156 5.292969 11.703125 L 5.273438 11.703125 C 5.285156 11.753906 5.292969 11.808594 5.292969 11.867188 L 5.292969 12.164062 C 4.855469 11.875 4.273438 11.703125 3.636719 11.703125 C 2.265625 11.703125 1.15625 12.511719 1.15625 13.519531 C 1.15625 14.527344 2.265625 15.339844 3.636719 15.339844 C 4.289062 15.339844 4.875 15.160156 5.316406 14.863281 C 5.398438 15.136719 5.652344 15.339844 5.953125 15.339844 C 6.246094 15.339844 6.496094 15.152344 6.582031 14.886719 C 6.59375 14.890625 6.601562 14.894531 6.613281 14.898438 C 6.613281 14.878906 6.613281 14.863281 6.613281 14.84375 C 6.613281 14.816406 6.613281 14.792969 6.609375 14.769531 C 6.609375 14.753906 6.613281 14.738281 6.613281 14.722656 C 6.613281 14.714844 6.613281 14.710938 6.613281 14.703125 C 6.613281 14.703125 6.613281 14.699219 6.613281 14.699219 C 6.613281 14.691406 6.613281 14.6875 6.613281 14.679688 L 6.613281 11.703125 C 6.613281 10.050781 5.359375 8.726562 3.804688 8.726562 Z M 3.804688 13.023438 L 3.96875 13.023438 C 4.609375 13.023438 5.125 13.238281 5.125 13.5 L 5.125 13.539062 C 5.125 13.804688 4.609375 14.015625 3.96875 14.015625 L 3.804688 14.015625 C 3.164062 14.015625 2.644531 13.804688 2.644531 13.539062 L 2.644531 13.5 C 2.644531 13.238281 3.164062 13.023438 3.804688 13.023438 Z M 3.804688 13.023438 "/>
<path style=" stroke:none;fill-rule:nonzero;fill:rgb(25.882354%,25.882354%,25.882354%);fill-opacity:1;" d="M 1.652344 0.785156 C 1.105469 0.785156 0.660156 1.230469 0.660156 1.777344 L 0.660156 8.0625 L 1.652344 8.0625 L 1.652344 2.769531 C 1.652344 2.40625 1.949219 2.109375 2.316406 2.109375 L 5.953125 2.109375 L 5.953125 0.785156 Z M 14.222656 10.046875 L 14.222656 13.6875 C 14.222656 14.050781 13.925781 14.347656 13.5625 14.347656 L 7.9375 14.347656 L 7.9375 15.339844 L 14.222656 15.339844 C 14.773438 15.339844 15.214844 14.898438 15.214844 14.347656 L 15.214844 10.046875 Z M 14.222656 10.046875 "/>
</g>
</svg>

<svg xmlns="http://www.w3.org/2000/svg" width="16pt" height="16pt" viewBox="0 0 16 16"><path d="M8.602 8.063l5.289-3.31 1.324 1.325V.785H9.922l1.324 1.324-3.309 5.293zm0 0" fill-rule="evenodd" fill="#78909c"/><path d="M3.805 8.727c-.852 0-1.61.394-2.121 1.02-.528.796.464 1.46.941.94.273-.39.7-.64 1.18-.64.824 0 1.488.738 1.488 1.656h-.02c.012.05.02.106.02.164v.297c-.438-.289-1.02-.46-1.656-.46-1.371 0-2.48.808-2.48 1.816 0 1.007 1.109 1.82 2.48 1.82.652 0 1.238-.18 1.68-.477a.668.668 0 0 0 .636.477.658.658 0 0 0 .629-.453l.031.011v-.054c0-.028 0-.051-.004-.074 0-.016.004-.032.004-.047v-.02-.004-2.996c0-1.652-1.254-2.976-2.808-2.976zm0 4.296h.164c.64 0 1.156.215 1.156.477v.04c0 .265-.516.476-1.156.476h-.164c-.64 0-1.16-.211-1.16-.477V13.5c0-.262.52-.477 1.16-.477zm0 0" fill="#78909c"/><path d="M1.652.785a.994.994 0 0 0-.992.992v6.285h.992V2.77c0-.364.297-.66.664-.66h3.637V.784zm12.57 9.262v3.64c0 .364-.296.66-.66.66H7.939v.993h6.285c.55 0 .992-.442.992-.992v-4.301zm0 0" fill="#424242"/></svg>
